X:1
T:Title
%%score { ( 1 3 ) | ( 2 4 ) }
L:1/8
Q:1/4=100
M:6/8
K:Ab
V:1 treble nm="Grand Piano"
V:3 treble 
V:2 bass 
V:4 bass 
V:1
 [CE][CE][CE] [Ec]2 [Ec] | BAF [CE]3 | EEE d2 d | dcB [Ec]3 | ccc e2 c | BAF [FA]3 | %6
w: F.~M.~Cranston * * * *||||||
 [FA][EG]F E2 d | B3 [CA]3 | c2 c ABc | .[CE]3 [CA]3 | [Ec]2 [Ec] cBA | B2 c d3 | %12
w: ||||||
 [Ec][Ec][Ec] e2 c | [FB][FA][DF] [FA]3 | [FA][EG]F E2 d | B3 [CA]3 |] %16
w: ||||
V:2
 [A,,A,][A,,A,][A,,A,] [A,,A,]2 [A,,A,] | [D,A,]2 [D,A,D] [A,,A,]3 | %2
 [E,G,D][E,G,D][E,G,D] [E,B,E]2 [E,B,E] | .B,3 z3 | [A,E][A,E][A,E] [A,CE]2 [A,_G] | %5
 [D,D]2 [D,A,D] [D,D]3 | [D,D][D,D][D,A,D] [E,A,C]2 [E,G,E] | [E,G,D]3 [A,,A,]3 | %8
 [A,E]2 [A,E] [A,C][A,D][A,E] | z2 F [A,,E,]3 | [A,,A,]2 [A,,A,] [A,E][G,B,E][F,B,=D] | %11
 [E,E]2- [E,A,E] [E,B,E]3 | [A,,A,][A,,A,][A,,A,][K:treble] [A,CE]2 [A,_G] | %13
 [D,D][D,D][D,A,] [D,D]3 | [D,D][D,D][D,A,D] [E,A,C]2 [E,G,E] | [E,G,D]3 [A,,A,]3 |] %16
V:3
 x6 | .F3 z3 | x6 | x6 | x6 | .F3 z3 | x6 | x6 | x6 | x6 | x6 | x6 | x6 | x6 | x6 | x6 |] %16
V:4
 x6 | x6 | x6 | [E,E]-[E,A,E][E,G,E] [A,,A,]3 | x6 | x6 | x6 | x6 | x6 | A,,3 z3 | x6 | .G,3 z3 | %12
 x3[K:treble] x3 | x6 | x6 | x6 |] %16

